Costumes/4-glow.svg

<?xml version="1.0" encoding="UTF-8" standalone="no"?>
<svg
   version="1.1"
   width="62.552177"
   height="76.994347"
   id="svg8"
   sodipodi:docname="4-glow.svg"
   xmlns:inkscape="http://www.inkscape.org/namespaces/inkscape"
   xmlns:sodipodi="http://sodipodi.sourceforge.net/DTD/sodipodi-0.dtd"
   xmlns="http://www.w3.org/2000/svg"
   xmlns:svg="http://www.w3.org/2000/svg">
  <defs
     id="defs12" />
  <sodipodi:namedview
     id="namedview10"
     pagecolor="#ffffff"
     bordercolor="#000000"
     borderopacity="0.25"
     inkscape:showpageshadow="2"
     inkscape:pageopacity="0.0"
     inkscape:pagecheckerboard="0"
     inkscape:deskcolor="#d1d1d1" />
  <!-- Exported by Scratch - http://scratch.mit.edu/ -->
  <g
     id="ID0.7159087448380888"
     transform="translate(1.770107e-4,3.447702e-4)">
    <g
       id="ID0.9115082491189241">
      <g
         id="ID0.6069691181182861">
        <path
           id="ID0.777123139705509"
           fill="#00cccc"
           d="m 62.552,63.144 c 0,5.14 -2.75,9.66 -7.35,12.09 -2.23,1.18 -4.83,1.76 -7.95,1.76 -1.31,0 -2.73,-0.1 -4.34,-0.3 -0.12,-0.01 -0.24,-0.03 -0.36,-0.05 -2.49,-0.39 -3.64,-0.43 -4.02,-0.43 h -0.12 c -0.16,0.02 -0.32,0.03 -0.48,0.03 -0.25,0.02 -0.61,0.06 -1.1,0.11 -1.3,0.17 -2.44,0.25 -3.49,0.25 -0.57,0 -1.76,0.03 -4.14,0.16 h -0.12 c -0.65,0.03 -1.22,0.04 -1.73,0.04 -1.35,0 -2.48,-0.09 -3.51,-0.28 -3.38,-0.58 -6.38,-2.33 -8.48,-4.98 -2.52,-3.16 -3.05,-6.32 -3.05,-8.42 0,-2.73 0.85,-5.33 2.39,-7.52 -1,-0.08 -1.98,-0.2 -2.94,-0.38 -5.91,-1.06 -8.98,-6.08 -10.14,-7.98 -1.49,-2.43 -1.98,-5.35 -1.36,-8.13 0.2,-0.92 0.52,-1.93 1.02,-3.24 0.59,-2.37 1.94,-4.44 3.78,-5.93 2.51,-3.43 6.46,-9.03 11.76,-16.69 1.28,-1.84 1.99,-2.98 2.37,-3.63 0.98,-1.77 2.36,-3.4 4.32,-5.13 2,-1.77 3.77,-2.92 5.58,-3.64 0.34,-0.14 0.69,-0.26 1.05,-0.36 2.54,-0.73 5.28,-0.65 7.91,0.23 0.24,0.07 0.47,0.16 0.7,0.25 0.42,0.07 0.85,0.16 1.26,0.27 2.76,0.75 5.16,2.24 6.94,4.31 2.6,3.04 3.15,6.67 3.35,10.14 0.02,0.33 0.03,0.67 0.02,1 -0.04,1.09 -0.05,3.24 0.08,7.32 0.02,0.37 0.04,0.78 0.06,1.22 7.03,1.48 10.68,7.32 10.68,13.1 0,1.27 -0.16,2.54 -0.5,3.9 -0.4,1.57 -1.13,3.04 -2.16,4.3 -1.14,1.39 -2.47,2.55 -3.95,3.47 4.36,1.91 8.02,6.25 8.02,13.14 z" />
      </g>
    </g>
    <g
       id="ID0.7618503365665674">
      <path
         id="ID0.8773718820884824"
         fill="#ffffff"
         d="m 50.055,65.514 c -0.998,0.528 -2.933,0.616 -5.805,0.264 -2.991,-0.468 -5.221,-0.645 -6.686,-0.527 -0.235,0 -0.91,0.06 -2.023,0.176 -0.88,0.118 -1.613,0.176 -2.199,0.176 -1.055,0 -2.639,0.06 -4.749,0.176 -1.351,0.06 -2.287,0.032 -2.815,-0.082 -0.763,-0.11 -1.363,-0.442 -1.803,-0.995 -0.44,-0.553 -0.66,-1.076 -0.66,-1.573 0,-0.884 0.498,-1.616 1.495,-2.197 0.997,-0.579 2.023,-0.869 3.079,-0.869 0.469,0 0.88,0 1.231,0 h 5.365 c 0.353,0 0.85,-0.088 1.496,-0.267 0.116,-2.132 -0.119,-6.13 -0.704,-11.993 0,-0.948 -0.016,-1.94 -0.044,-2.978 -0.03,-1.036 -0.279,-1.88 -0.748,-2.531 -3.284,0.294 -6.948,0.792 -10.995,1.495 -3.226,0.587 -5.513,0.88 -6.86,0.88 -0.998,0 -1.966,-0.088 -2.903,-0.264 C 13.024,44.288 12.114,43.32 11,41.502 c 0.117,-0.527 0.44,-1.436 0.968,-2.727 0,-0.116 0,-0.204 0,-0.264 0.176,0 0.409,-0.117 0.704,-0.352 2.463,-3.283 6.86,-9.5 13.193,-18.647 1.231,-1.76 2.199,-3.255 2.903,-4.486 0.352,-0.645 1.025,-1.407 2.022,-2.287 0.997,-0.88 1.788,-1.437 2.375,-1.671 0.41,-0.117 0.88,-0.088 1.407,0.088 0.353,0.176 0.704,0.322 1.056,0.439 0.938,0.176 1.437,0.264 1.495,0.264 0.646,0.176 1.144,0.471 1.496,0.88 0.352,0.411 0.585,1.613 0.703,3.606 -0.059,1.818 -0.03,4.517 0.088,8.093 0.117,2.639 0.353,6.627 0.704,11.962 0.645,0.06 1.729,0 3.255,-0.176 1.759,-0.233 2.932,-0.352 3.519,-0.352 2.168,0 3.254,0.821 3.254,2.463 0,0.352 -0.059,0.763 -0.176,1.231 -1.056,1.29 -2.551,1.935 -4.485,1.935 -0.295,0 -0.748,0 -1.364,0 -0.615,0 -1.07,0 -1.363,0 -0.703,0 -1.319,0.089 -1.847,0.265 0,2.053 0.116,5.132 0.352,9.235 0.352,4.75 0.704,7.683 1.056,8.796 1.583,-0.058 3.928,-0.028 7.037,0.088 1.465,0.118 2.198,1.203 2.198,3.255 0,1.055 -0.498,1.847 -1.495,2.374 z M 34.398,36.928 C 33.871,32.061 33.547,26.783 33.43,21.095 c -0.118,0 -0.206,-0.029 -0.264,-0.088 0.176,-0.176 0.264,-0.322 0.264,-0.44 0,-0.058 -0.088,-0.233 -0.264,-0.527 -0.118,-0.233 -0.118,-0.439 0,-0.616 0.176,-0.233 0.264,-0.527 0.264,-0.879 -0.821,0.821 -1.642,1.906 -2.463,3.254 -1.35,2.171 -2.141,3.431 -2.374,3.783 -2.229,2.933 -5.045,7.066 -8.444,12.402 -0.06,0.234 0,0.439 0.176,0.615 1.759,0 4.104,-0.205 7.037,-0.615 3.752,-0.587 6.098,-0.938 7.036,-1.056 z" />
    </g>
  </g>
</svg>

<svg version="1.1" width="63" height="77" xmlns="http://www.w3.org/2000/svg" xmlns:xlink="http://www.w3.org/1999/xlink">
  <!-- Exported by Scratch - http://scratch.mit.edu/ -->
  <g id="ID0.7159087448380888">
    <g id="ID0.9115082491189241">
      <g id="ID0.6069691181182861">
        <path id="ID0.777123139705509" fill="#00CCCC" d="M 62.552 63.144 C 62.552 68.284 59.802 72.804 55.202 75.234 C 52.972 76.414 50.372 76.994 47.252 76.994 C 45.942 76.994 44.522 76.894 42.912 76.694 C 42.792 76.684 42.672 76.664 42.552 76.644 C 40.062 76.254 38.912 76.214 38.532 76.214 L 38.412 76.214 C 38.252 76.234 38.092 76.244 37.932 76.244 C 37.682 76.264 37.322 76.304 36.832 76.354 C 35.532 76.524 34.392 76.604 33.342 76.604 C 32.772 76.604 31.582 76.634 29.202 76.764 L 29.082 76.764 C 28.432 76.794 27.862 76.804 27.352 76.804 C 26.002 76.804 24.872 76.714 23.842 76.524 C 20.462 75.944 17.462 74.194 15.362 71.544 C 12.842 68.384 12.312 65.224 12.312 63.124 C 12.312 60.394 13.162 57.794 14.702 55.604 C 13.702 55.524 12.722 55.404 11.762 55.224 C 5.852 54.164 2.782 49.144 1.622 47.244 C 0.132 44.814 -0.358 41.894 0.262 39.114 C 0.462 38.194 0.782 37.184 1.282 35.874 C 1.872 33.504 3.222 31.434 5.062 29.944 C 7.572 26.514 11.522 20.914 16.822 13.254 C 18.102 11.414 18.812 10.274 19.192 9.624 C 20.172 7.854 21.552 6.224 23.512 4.494 C 25.512 2.724 27.282 1.574 29.092 0.854 C 29.432 0.714 29.782 0.594 30.142 0.494 C 32.682 -0.236 35.422 -0.156 38.052 0.724 C 38.292 0.794 38.522 0.884 38.752 0.974 C 39.172 1.044 39.602 1.134 40.012 1.244 C 42.772 1.994 45.172 3.484 46.952 5.554 C 49.552 8.594 50.102 12.224 50.302 15.694 C 50.322 16.024 50.332 16.364 50.322 16.694 C 50.282 17.784 50.272 19.934 50.402 24.014 C 50.422 24.384 50.442 24.794 50.462 25.234 C 57.492 26.714 61.142 32.554 61.142 38.334 C 61.142 39.604 60.982 40.874 60.642 42.234 C 60.242 43.804 59.512 45.274 58.482 46.534 C 57.342 47.924 56.012 49.084 54.532 50.004 C 58.892 51.914 62.552 56.254 62.552 63.144 Z "/>
      </g>
    </g>
    <g id="ID0.7618503365665674">
      <path id="ID0.8773718820884824" fill="#FFFFFF" d="M 50.055 65.514 C 49.057 66.042 47.122 66.130 44.250 65.778 C 41.259 65.310 39.029 65.133 37.564 65.251 C 37.329 65.251 36.654 65.311 35.541 65.427 C 34.661 65.545 33.928 65.603 33.342 65.603 C 32.287 65.603 30.703 65.663 28.593 65.779 C 27.242 65.839 26.306 65.811 25.778 65.697 C 25.015 65.587 24.415 65.255 23.975 64.702 C 23.535 64.149 23.315 63.626 23.315 63.129 C 23.315 62.245 23.813 61.513 24.810 60.932 C 25.807 60.353 26.833 60.063 27.889 60.063 C 28.358 60.063 28.769 60.063 29.120 60.063 L 34.485 60.063 C 34.838 60.063 35.335 59.975 35.981 59.796 C 36.097 57.664 35.862 53.666 35.277 47.803 C 35.277 46.855 35.261 45.863 35.233 44.825 C 35.203 43.789 34.954 42.945 34.485 42.294 C 31.201 42.588 27.537 43.086 23.490 43.789 C 20.264 44.376 17.977 44.669 16.630 44.669 C 15.632 44.669 14.664 44.581 13.727 44.405 C 13.024 44.288 12.114 43.320 11 41.502 C 11.117 40.975 11.440 40.066 11.968 38.775 C 11.968 38.659 11.968 38.571 11.968 38.511 C 12.144 38.511 12.377 38.394 12.672 38.159 C 15.135 34.876 19.532 28.659 25.865 19.512 C 27.096 17.752 28.064 16.257 28.768 15.026 C 29.120 14.381 29.793 13.619 30.790 12.739 C 31.787 11.859 32.578 11.302 33.165 11.068 C 33.575 10.951 34.045 10.980 34.572 11.156 C 34.925 11.332 35.276 11.478 35.628 11.595 C 36.566 11.771 37.065 11.859 37.123 11.859 C 37.769 12.035 38.267 12.330 38.619 12.739 C 38.971 13.150 39.204 14.352 39.322 16.345 C 39.263 18.163 39.292 20.862 39.410 24.438 C 39.527 27.077 39.763 31.065 40.114 36.400 C 40.759 36.460 41.843 36.400 43.369 36.224 C 45.128 35.991 46.301 35.872 46.888 35.872 C 49.056 35.872 50.142 36.693 50.142 38.335 C 50.142 38.687 50.083 39.098 49.966 39.566 C 48.910 40.856 47.415 41.501 45.481 41.501 C 45.186 41.501 44.733 41.501 44.117 41.501 C 43.502 41.501 43.047 41.501 42.754 41.501 C 42.051 41.501 41.435 41.590 40.907 41.766 C 40.907 43.819 41.023 46.898 41.259 51.001 C 41.611 55.751 41.963 58.684 42.315 59.797 C 43.898 59.739 46.243 59.769 49.352 59.885 C 50.817 60.003 51.550 61.088 51.550 63.140 C 51.550 64.195 51.052 64.987 50.055 65.514 Z M 34.398 36.928 C 33.871 32.061 33.547 26.783 33.430 21.095 C 33.312 21.095 33.224 21.066 33.166 21.007 C 33.342 20.831 33.430 20.685 33.430 20.567 C 33.430 20.509 33.342 20.334 33.166 20.040 C 33.048 19.807 33.048 19.601 33.166 19.424 C 33.342 19.191 33.430 18.897 33.430 18.545 C 32.609 19.366 31.788 20.451 30.967 21.799 C 29.617 23.970 28.826 25.230 28.593 25.582 C 26.364 28.515 23.548 32.648 20.149 37.984 C 20.089 38.218 20.149 38.423 20.325 38.599 C 22.084 38.599 24.429 38.394 27.362 37.984 C 31.114 37.397 33.460 37.046 34.398 36.928 Z "/>
    </g>
  </g>
</svg>
